dist/icons/svgs/ellipsis-h-outline.svg

<svg xmlns="http://www.w3.org/2000/svg" width="24" height="24" fill="currentcolor" class="icon-ellipsis-h-outline" viewBox="0 0 24 24">
  <path d="M20.125 12C20.125 12.7031 19.7344 13.2891 19.1875 13.6406C18.6016 13.9922 17.8594 13.9922 17.3125 13.6406C16.7266 13.2891 16.375 12.7031 16.375 12C16.375 11.3359 16.7266 10.75 17.3125 10.3984C17.8594 10.0469 18.6016 10.0469 19.1875 10.3984C19.7344 10.75 20.125 11.3359 20.125 12ZM13.875 12C13.875 12.7031 13.4844 13.2891 12.9375 13.6406C12.3516 13.9922 11.6094 13.9922 11.0625 13.6406C10.4766 13.2891 10.125 12.7031 10.125 12C10.125 11.3359 10.4766 10.75 11.0625 10.3984C11.6094 10.0469 12.3516 10.0469 12.9375 10.3984C13.4844 10.75 13.875 11.3359 13.875 12ZM5.75 13.875C5.04688 13.875 4.46094 13.5234 4.10938 12.9375C3.75781 12.3906 3.75781 11.6484 4.10938 11.0625C4.46094 10.5156 5.04688 10.125 5.75 10.125C6.41406 10.125 7 10.5156 7.35156 11.0625C7.70312 11.6484 7.70312 12.3906 7.35156 12.9375C7 13.5234 6.41406 13.875 5.75 13.875Z"/>
</svg>

<svg xmlns="http://www.w3.org/2000/svg" width="24" height="24" fill="currentColor" class="icon-ellipsis-h-outline" viewBox="0 0 24 24">
  <path d="M20.125 12c0 .703-.39 1.29-.937 1.64-.586.352-1.329.352-1.875 0a1.87 1.87 0 0 1-.938-1.64c0-.664.352-1.25.938-1.602.546-.351 1.289-.351 1.875 0 .546.352.937.938.937 1.602m-6.25 0c0 .703-.39 1.29-.937 1.64-.586.352-1.329.352-1.876 0a1.87 1.87 0 0 1-.937-1.64c0-.664.352-1.25.938-1.602.546-.351 1.289-.351 1.874 0 .547.352.938.938.938 1.602M5.75 13.875a1.87 1.87 0 0 1-1.64-.937c-.352-.547-.352-1.29 0-1.876.35-.546.937-.937 1.64-.937.664 0 1.25.39 1.602.938.351.585.351 1.328 0 1.874-.352.586-.938.938-1.602.938"/>
</svg>
